Flat-Remix-Dark/apps/scalable/ibus-bopomofo.svg

<svg xmlns="http://www.w3.org/2000/svg" xmlns:xlink="http://www.w3.org/1999/xlink" width="384pt" height="384pt" version="1.1" viewBox="0 0 384 384">
 <defs>
  <filter id="alpha" width="100%" height="100%" x="0%" y="0%" filterUnits="objectBoundingBox">
   <feColorMatrix in="SourceGraphic" type="matrix" values="0 0 0 0 1 0 0 0 0 1 0 0 0 0 1 0 0 0 1 0"/>
  </filter>
  <mask id="mask0">
   <g filter="url(#alpha)">
    <rect width="384" height="384" x="0" y="0" style="fill:rgb(0%,0%,0%);fill-opacity:0.2"/>
   </g>
  </mask>
  <clipPath id="clip1">
   <rect width="384" height="384" x="0" y="0"/>
  </clipPath>
  <g id="surface5" clip-path="url(#clip1)">
   <path style="fill:rgb(0%,0%,0%)" d="M 24 336 L 24 348 C 24 357.972656 32.027344 366 42 366 L 342 366 C 351.972656 366 360 357.972656 360 348 L 360 336 C 360 345.972656 351.972656 354 342 354 L 42 354 C 32.027344 354 24 345.972656 24 336 Z M 24 336"/>
  </g>
  <mask id="mask1">
   <g filter="url(#alpha)">
    <rect width="384" height="384" x="0" y="0" style="fill:rgb(0%,0%,0%);fill-opacity:0.101961"/>
   </g>
  </mask>
  <clipPath id="clip2">
   <rect width="384" height="384" x="0" y="0"/>
  </clipPath>
  <g id="surface8" clip-path="url(#clip2)">
   <path style="fill:rgb(100%,100%,100%)" d="M 42 24 C 32.027344 24 24 32.027344 24 42 L 24 48 C 24 38.027344 32.027344 30 42 30 L 342 30 C 351.972656 30 360 38.027344 360 48 L 360 42 C 360 32.027344 351.972656 24 342 24 Z M 42 24"/>
  </g>
  <mask id="mask2">
   <g filter="url(#alpha)">
    <rect width="384" height="384" x="0" y="0" style="fill:rgb(0%,0%,0%);fill-opacity:0.2"/>
   </g>
  </mask>
  <clipPath id="clip3">
   <rect width="384" height="384" x="0" y="0"/>
  </clipPath>
  <g id="surface11" clip-path="url(#clip3)">
   <path style="fill-rule:evenodd;fill:rgb(0%,0%,0%)" d="M 135.300781 76.285156 L 84.113281 145.359375 L 98.574219 174.070312 L 251.992188 174.070312 C 250.542969 210.847656 250.25 219.746094 242.40625 238.757812 C 237.78125 249.972656 231.941406 257.007812 220.1875 262.5 C 208.4375 267.988281 189.628906 271.324219 161.054688 269.484375 L 158.734375 305.390625 C 190.953125 307.464844 215.769531 304.304688 235.421875 295.125 C 255.074219 285.941406 268.417969 270.117188 275.6875 252.492188 C 290.230469 217.238281 286.324219 199.660156 288.765625 157.101562 L 287.988281 138.070312 L 134.304688 138.070312 L 164.210938 97.734375 Z M 135.300781 76.285156"/>
  </g>
 </defs>
 <g>
  <use mask="url(#mask0)" xlink:href="#surface5"/>
  <path style="fill:rgb(12.54902%,58.431373%,94.901961%)" d="M 360 342 L 360 42 C 360 32.058594 351.941406 24 342 24 L 42 24 C 32.058594 24 24 32.058594 24 42 L 24 342 C 24 351.941406 32.058594 360 42 360 L 342 360 C 351.941406 360 360 351.941406 360 342 Z M 360 342"/>
  <use mask="url(#mask1)" xlink:href="#surface8"/>
  <use mask="url(#mask2)" xlink:href="#surface11"/>
  <path style="fill-rule:evenodd;fill:rgb(100%,100%,100%)" d="M 135.300781 70.21875 L 84.113281 139.289062 L 98.574219 168 L 251.992188 168 C 250.542969 204.78125 250.25 213.675781 242.40625 232.6875 C 237.78125 243.902344 231.941406 250.941406 220.1875 256.429688 C 208.4375 261.921875 189.628906 265.253906 161.054688 263.414062 L 158.734375 299.320312 C 190.953125 301.398438 215.769531 298.238281 235.421875 289.054688 C 255.074219 279.875 268.417969 264.046875 275.6875 246.421875 C 290.230469 211.171875 286.324219 193.589844 288.765625 151.03125 L 287.988281 131.988281 L 134.304688 131.988281 L 164.210938 91.652344 Z M 135.300781 70.21875"/>
 </g>
</svg>

<svg xmlns="http://www.w3.org/2000/svg" xmlns:xlink="http://www.w3.org/1999/xlink" width="384pt" height="384pt" version="1.1" viewBox="0 0 384 384">
 <defs>
  <filter id="alpha" width="100%" height="100%" x="0%" y="0%" filterUnits="objectBoundingBox">
   <feColorMatrix in="SourceGraphic" type="matrix" values="0 0 0 0 1 0 0 0 0 1 0 0 0 0 1 0 0 0 1 0"/>
  </filter>
  <clipPath id="clip1">
   <rect width="384" height="384" x="0" y="0"/>
  </clipPath>
  <g id="surface5" clip-path="url(#clip1)">
   <path style="fill:rgb(0%,0%,0%)" d="M 24 336 L 24 348 C 24 357.972656 32.027344 366 42 366 L 342 366 C 351.972656 366 360 357.972656 360 348 L 360 336 C 360 345.972656 351.972656 354 342 354 L 42 354 C 32.027344 354 24 345.972656 24 336 Z M 24 336"/>
  </g>
  <clipPath id="clip2">
   <rect width="384" height="384" x="0" y="0"/>
  </clipPath>
  <g id="surface8" clip-path="url(#clip2)">
   <path style="fill:rgb(100%,100%,100%)" d="M 42 24 C 32.027344 24 24 32.027344 24 42 L 24 48 C 24 38.027344 32.027344 30 42 30 L 342 30 C 351.972656 30 360 38.027344 360 48 L 360 42 C 360 32.027344 351.972656 24 342 24 Z M 42 24"/>
  </g>
  <mask id="mask2">
   <g filter="url(#alpha)">
    <rect width="384" height="384" x="0" y="0" style="fill:rgb(0%,0%,0%);fill-opacity:0.2"/>
   </g>
  </mask>
  <clipPath id="clip3">
   <rect width="384" height="384" x="0" y="0"/>
  </clipPath>
  <g id="surface11" clip-path="url(#clip3)">
   <path style="fill-rule:evenodd;fill:rgb(0%,0%,0%)" d="M 135.300781 76.285156 L 84.113281 145.359375 L 98.574219 174.070312 L 251.992188 174.070312 C 250.542969 210.847656 250.25 219.746094 242.40625 238.757812 C 237.78125 249.972656 231.941406 257.007812 220.1875 262.5 C 208.4375 267.988281 189.628906 271.324219 161.054688 269.484375 L 158.734375 305.390625 C 190.953125 307.464844 215.769531 304.304688 235.421875 295.125 C 255.074219 285.941406 268.417969 270.117188 275.6875 252.492188 C 290.230469 217.238281 286.324219 199.660156 288.765625 157.101562 L 287.988281 138.070312 L 134.304688 138.070312 L 164.210938 97.734375 Z M 135.300781 76.285156"/>
  </g>
  <mask id="mask0-7">
   <g style="filter:url(#alpha-5)">
    <rect width="384" height="384" x="0" y="0" style="fill-opacity:0.10196102"/>
   </g>
  </mask>
  <filter id="alpha-5" width="1" height="1" x="0" y="0" filterUnits="objectBoundingBox">
   <feColorMatrix in="SourceGraphic" type="matrix" values="0 0 0 0 1 0 0 0 0 1 0 0 0 0 1 0 0 0 1 0"/>
  </filter>
  <mask id="mask1-1">
   <g style="filter:url(#alpha-5)">
    <rect width="384" height="384" x="0" y="0" style="fill-opacity:0.2"/>
   </g>
  </mask>
 </defs>
 <path d="M 360.75,341.25002 V 37.5 c 0,-9.3203 -7.55469,-16.875 -16.875,-16.875 H 40.125 c -9.32031,0 -16.875,7.5547 -16.875,16.875 v 303.75002 c 0,9.32031 7.55469,16.875 16.875,16.875 h 303.75 c 9.32031,0 16.875,-7.55469 16.875,-16.875 z m 0,0" style="fill:#357af0"/>
 <use width="100%" height="100%" x="0" y="0" mask="url(#mask2)" xlink:href="#surface11"/>
 <path d="M 135.30078,70.21875 84.113281,139.28906 98.574219,168 H 251.99219 c -1.44922,36.78125 -1.74219,45.67578 -9.58594,64.6875 -4.625,11.21484 -10.46484,18.25391 -22.21875,23.74219 -11.75,5.49218 -30.55859,8.82422 -59.13281,6.98437 l -2.32032,35.90625 c 32.21875,2.07813 57.03516,-1.08203 76.6875,-10.26562 19.65235,-9.17969 32.9961,-25.00782 40.26563,-42.63282 14.54297,-35.25 10.63672,-52.83203 13.07812,-95.39062 l -0.77734,-19.04297 H 134.30469 l 29.90625,-40.335936 z m 0,0" style="fill:#ffffff;fill-rule:evenodd"/>
 <use width="100%" height="100%" x="0" y="0" mask="url(#mask0-7)" transform="translate(0.57527331,-7.5148232)" xlink:href="#surface5"/>
 <use width="100%" height="100%" x="0" y="0" mask="url(#mask1-1)" transform="matrix(1.0068485,0,0,1,-1.3149105,-3.48791)" xlink:href="#surface8"/>
</svg>
